img/htmlacademy.svg

<svg width="115" height="34" viewBox="0 0 115 34" fill="none" xmlns="http://www.w3.org/2000/svg">
<g clip-path="url(#clip0)">
<path d="M0 12.8806V15.4567H2.45789V12.8806H0Z" fill="black"/>
<path d="M11.6466 4.52965C10.0863 4.52965 8.82534 5.23807 8.03454 6.26851H7.94905V0H5.91864V15.4566H7.94905V10.1541C7.94905 8.02886 9.27418 6.50466 11.2191 6.50466C13.0572 6.50466 14.1258 7.87858 14.1258 9.72478V15.4566H16.1563V9.35984C16.1563 6.41878 14.3396 4.52965 11.6466 4.52965Z" fill="black"/>
<path d="M26.6171 4.83024H21.8082V1.07343H19.7778V4.83024H17.8542V6.80525H19.7778V12.7947C19.7778 14.5121 20.7396 15.4567 22.4708 15.4567H26.6171V13.4602H22.8769C22.193 13.4602 21.8082 13.0738 21.8082 12.4083V6.80525H26.6171V4.83024Z" fill="black"/>
<path d="M41.1215 4.55109C39.497 4.55109 38.2576 5.34538 37.5736 6.61197H37.5095C36.8897 5.36686 35.7356 4.55109 34.154 4.55109C32.7434 4.55109 31.6746 5.30244 31.0336 6.35437H30.948V4.83017H29.0031V15.4566H31.0336V10.0038C31.0336 8.00736 32.0806 6.54758 33.6624 6.50464C35.1584 6.4617 36.0347 7.53508 36.0347 9.14513V15.4566H38.0652V9.83209C38.0652 7.44921 39.4758 6.50464 40.6941 6.50464C42.1688 6.50464 43.0452 7.53508 43.0452 9.14513V15.4566H45.0754V8.93047C45.0754 6.35437 43.6221 4.55109 41.1215 4.55109Z" fill="black"/>
<path d="M47.8271 12.7088C47.8271 14.4476 48.8103 15.4566 50.6269 15.4566H52.6359V13.4816H50.9261C50.2422 13.4816 49.8574 13.0952 49.8574 12.4297V0H47.8271V12.7088Z" fill="black"/>
<path d="M28.9048 19.7063H28.8192C28.027 18.6393 26.7425 17.8923 25.0295 17.871C21.882 17.8283 19.6338 20.1545 19.6338 23.4411C19.6338 26.749 21.9248 29.0753 25.008 29.0326C26.7637 29.0112 28.027 28.2216 28.8192 27.0904H28.9048V28.7337H30.9177V18.1698H28.9048V19.7063ZM25.3077 27.0692C23.081 27.0692 21.6679 25.4471 21.6679 23.4411C21.6679 21.435 23.081 19.8131 25.3077 19.8131C27.4703 19.8131 28.8836 21.435 28.8836 23.4411C28.8836 25.4259 27.4703 27.0692 25.3077 27.0692Z" fill="black"/>
<path d="M44.2095 22.0111C43.717 19.6209 41.5973 17.8709 38.8139 17.8709C35.4524 17.8709 33.2042 20.3252 33.2042 23.441C33.2042 26.5568 35.4524 29.0325 38.8139 29.0325C41.5973 29.0325 43.717 27.2398 44.2095 24.8282H42.0898C41.6617 26.1727 40.3984 27.0903 38.8354 27.0903C36.6513 27.0903 35.2381 25.447 35.2381 23.441C35.2381 21.4349 36.6513 19.813 38.8354 19.813C40.4625 19.813 41.6617 20.7733 42.0898 22.0111H44.2095Z" fill="black"/>
<path d="M55.0836 19.7063H54.998C54.2058 18.6393 52.921 17.8923 51.2081 17.871C48.0607 17.8283 45.8125 20.1545 45.8125 23.4411C45.8125 26.749 48.1036 29.0753 51.1866 29.0326C52.9425 29.0112 54.2058 28.2216 54.998 27.0904H55.0836V28.7337H57.0962V18.1698H55.0836V19.7063ZM51.4866 27.0692C49.2596 27.0692 47.8466 25.4471 47.8466 23.4411C47.8466 21.435 49.2596 19.8131 51.4866 19.8131C53.6491 19.8131 55.0622 21.435 55.0622 23.4411C55.0622 25.4259 53.6491 27.0692 51.4866 27.0692Z" fill="black"/>
<path d="M68.6538 19.8129H68.5682C67.776 18.6818 66.4483 17.8922 64.7568 17.8709C61.6738 17.8282 59.3827 20.1544 59.3827 23.4623C59.3827 26.7489 61.6309 29.0752 64.7783 29.0325C66.4483 29.0111 67.776 28.2642 68.5468 27.1971H68.6538V28.7336H70.6665V13.3679H68.6538V19.8129ZM65.0568 27.0903C62.8298 27.0903 61.4168 25.4685 61.4168 23.4623C61.4168 21.4562 62.8298 19.8343 65.0568 19.8343C67.2193 19.8343 68.6324 21.4776 68.6324 23.4623C68.6324 25.4685 67.2193 27.0903 65.0568 27.0903Z" fill="black"/>
<path d="M78.3297 17.8709C75.0752 17.8709 72.8483 20.3678 72.8483 23.4623C72.8483 26.4714 74.9467 29.0325 78.3724 29.0325C80.8561 29.0325 82.8475 27.688 83.5541 25.447H81.4342C80.9634 26.4502 79.8286 27.0903 78.4582 27.0903C76.5312 27.0903 75.1608 25.8099 75.0108 24.1666H83.7682C84.0464 20.6453 81.8412 17.8709 78.3297 17.8709ZM78.2868 19.813C79.9783 19.813 81.2416 20.8587 81.5627 22.3739H75.0538C75.3534 20.88 76.6168 19.813 78.2868 19.813Z" fill="black"/>
<path d="M98.1985 17.8922C96.5713 17.8922 95.3295 18.6818 94.6443 19.9409H94.5799C93.9591 18.7031 92.8029 17.8922 91.2184 17.8922C89.8054 17.8922 88.7347 18.6391 88.0924 19.6848H88.0068V18.1696H86.0583V28.7335H88.0924V23.3128C88.0924 21.3281 89.1417 19.8769 90.7261 19.8342C92.2247 19.7915 93.1028 20.8586 93.1028 22.4592V28.7335H95.1368V23.1421C95.1368 20.7732 96.5499 19.8342 97.7703 19.8342C99.2477 19.8342 100.125 20.8586 100.125 22.4592V28.7335H102.16V22.2458C102.16 19.6848 100.704 17.8922 98.1985 17.8922Z" fill="black"/>
<path d="M109.441 27.0477L105.801 18.1697H103.553L108.392 29.7368L108.371 29.7794C108.028 30.6544 107.643 30.9745 106.701 30.9745H104.196V33.0019H106.701C108.542 33.0019 109.527 32.1696 110.212 30.3769L114.88 18.1697H112.803L109.441 27.0477Z" fill="black"/>
</g>
<defs>
<clipPath id="clip0">
<rect width="115" height="33.0294" fill="white"/>
</clipPath>
</defs>
</svg>

<svg width="115" height="34" fill="none" xmlns="http://www.w3.org/2000/svg"><g clip-path="url(#clip0)" fill="#000"><path d="M0 12.9v2.6h2.5v-2.6H0zM11.6 4.5c-1.5 0-2.8.7-3.6 1.8V0H6v15.5h2v-5.3C8 8 9.2 6.5 11.1 6.5c1.9 0 3 1.4 3 3.2v5.8h2V9.4c0-3-1.9-4.9-4.6-4.9zM26.6 4.8h-4.8V1.1h-2v3.7h-2v2h2v6c0 1.7 1 2.7 2.7 2.7h4.1v-2H23c-.7 0-1-.4-1-1V6.7h4.7v-2zM41.1 4.6c-1.6 0-2.8.7-3.5 2-.7-1.2-1.9-2-3.4-2s-2.5.7-3.2 1.8V4.8h-2v10.7h2V10c0-2 1-3.5 2.7-3.5 1.5 0 2.3 1 2.3 2.6v6.4h2V9.8c0-2.4 1.5-3.3 2.7-3.3 1.5 0 2.3 1 2.3 2.6v6.4h2V8.9c0-2.5-1.4-4.3-3.9-4.3zM47.8 12.7c0 1.7 1 2.8 2.8 2.8h2v-2H51c-.7 0-1-.4-1-1V0h-2v12.7zM28.9 19.7c-.9-1-2.2-1.8-3.9-1.8-3.1 0-5.4 2.3-5.4 5.5 0 3.3 2.3 5.7 5.4 5.6 1.8 0 3-.8 3.8-2h.1v1.7h2V18.2h-2v1.5zm-3.6 7.4a3.5 3.5 0 01-3.6-3.7c0-2 1.4-3.6 3.6-3.6s3.6 1.6 3.6 3.6-1.4 3.7-3.6 3.7zM44.2 22a5.3 5.3 0 00-5.4-4.1 5.4 5.4 0 00-5.6 5.5c0 3.2 2.3 5.6 5.6 5.6 2.8 0 5-1.8 5.4-4.2h-2.1a3.3 3.3 0 01-3.3 2.3 3.5 3.5 0 01-3.6-3.7c0-2 1.5-3.6 3.6-3.6 1.7 0 2.9 1 3.3 2.2h2.1zM55 19.7c-.8-1-2-1.8-3.8-1.8-3.1 0-5.4 2.3-5.4 5.5 0 3.3 2.3 5.7 5.4 5.6 1.7 0 3-.8 3.8-2v1.7h2.1V18.2h-2v1.5zm-3.5 7.4a3.5 3.5 0 01-3.7-3.7c0-2 1.5-3.6 3.7-3.6 2.1 0 3.6 1.6 3.6 3.6s-1.5 3.7-3.6 3.7zM68.7 19.8h-.1c-.8-1.1-2.2-2-3.8-2-3.1 0-5.4 2.4-5.4 5.7 0 3.2 2.2 5.6 5.4 5.5 1.6 0 3-.7 3.7-1.8h.2v1.5h2V13.4h-2v6.4zM65 27.1a3.5 3.5 0 01-3.7-3.6c0-2 1.4-3.7 3.7-3.7 2.1 0 3.5 1.7 3.5 3.7S67.2 27 65.1 27zM78.3 17.9a5.4 5.4 0 00-5.5 5.6c0 3 2.1 5.5 5.6 5.5 2.5 0 4.4-1.3 5.2-3.6h-2.2c-.4 1-1.6 1.7-3 1.7-1.9 0-3.2-1.3-3.4-3h8.8c.2-3.5-2-6.2-5.5-6.2zm0 2c1.7 0 3 1 3.3 2.5H75a3.2 3.2 0 013.2-2.6zM98.2 17.9c-1.6 0-2.9.8-3.6 2-.6-1.2-1.8-2-3.4-2-1.4 0-2.5.7-3.1 1.8v-1.5h-2v10.5h2v-5.4c0-2 1-3.4 2.6-3.5 1.5 0 2.4 1 2.4 2.7v6.2h2v-5.6c0-2.3 1.4-3.3 2.7-3.3 1.4 0 2.3 1 2.3 2.7v6.2h2v-6.5c0-2.5-1.4-4.3-3.9-4.3zM109.4 27l-3.6-8.8h-2.2l4.8 11.5c-.4 1-.8 1.3-1.7 1.3h-2.5v2h2.5c1.8 0 2.8-.8 3.5-2.6l4.7-12.2h-2.1l-3.4 8.8z"/></g><defs><clipPath id="clip0"><path fill="#fff" d="M0 0h115v33H0z"/></clipPath></defs></svg>
